X:1804
T:Lady Louisa Macdonald's Strathspey
P:Lady Louisa Macdonald's Strathspey
C:Traditional?
R:Strathspey (8x32)
B:RSCDS 18-4
Z:Anselm Lingnau <anselm@strathspey.org>
M:4/4
L:1/8
K:F
%%scale 0.85
A|"F"F>G F>d c<A c>g|"Dm"F>G F>A "Gm"B<G "C7"G>A|\
  "F"F>G F>d c<A A>c|"Dm"a>g f>F "Am"A<c c a|
  "F"F>G F>d c<A c>g|"Dm"F>G F>A "Gm"B<G "C7"G>A|\
  "F"F>G F>d c<A A>c|"Dm"d>e "C7"f>g "F"a>g f||
f/g/|"Dm"a>g f>F "Am"A<c cf/g/|"Dm"a>g f>d "C"e<g gf/g/|\
  "F"a>g f>c "Bb"d/e/f "F"c>A|"Bb"d>e f>d "F7"c<A A f/g/|
  "Dm"a>g f>F "Am"A<c cf/g/|"Dm"a>g f>d "C"e<g gf/g/|\
  "F"a>g f>c "Bb"d/e/f "F"c>A|"Gm7"B/c/d "C7"G>B "F"A<F F|]

